src/static/logos/enyo.svg

<?xml version="1.0" encoding="UTF-8" standalone="no"?>
<svg width="256px" height="435px" viewBox="0 0 256 435" version="1.1" xmlns="http://www.w3.org/2000/svg" xmlns:xlink="http://www.w3.org/1999/xlink" preserveAspectRatio="xMidYMid">
    <defs>
        <radialGradient cx="50%" cy="44.2133073%" fx="50%" fy="44.2133073%" r="50%" id="radialGradient-1">
            <stop stop-color="#A5C8E6" offset="0%"></stop>
            <stop stop-color="#353D4B" offset="100%"></stop>
        </radialGradient>
    </defs>
	<g>
		<path d="M74.1721854,434.013245 C74.1730331,424.131815 74.1662517,414.250808 74.1768477,404.369377 C74.1882914,394.004768 81.9437351,386.086146 92.3096159,386.049695 C97.0901192,386.032742 101.985483,385.795815 106.629086,386.693086 C114.949934,388.300715 120.361113,395.641642 120.36747,404.157881 C120.375099,414.109669 120.370437,424.061457 120.370861,434.013245 L108.07947,434.013245 C108.096848,424.057219 108.140927,414.100768 108.117616,404.144742 C108.109563,400.690437 105.609325,398.090596 102.156715,397.971073 C98.9126358,397.859179 95.6575364,397.850278 92.4138808,397.971921 C88.9549139,398.101616 86.4470464,400.676026 86.4330596,404.145166 C86.3927947,414.100768 86.4466225,424.057219 86.4635762,434.013245 L74.1721854,434.013245" fill="#000000"></path>
		<path d="M37.7218543,434.013245 C33.981457,432.906172 30.3966093,431.545642 27.6407947,428.575364 C24.3314437,425.009166 22.4839205,420.873748 22.4673907,415.977536 C22.4529801,411.811179 22.4182252,407.643974 22.4775629,403.47804 C22.6076821,394.292132 30.1876556,386.329854 39.357457,386.08106 C47.4723179,385.861086 55.5986225,386.030199 63.7194172,386.035709 C63.9910993,386.036132 64.2623576,386.122596 64.6594967,386.190834 L64.6594967,398.269033 L62.3855894,398.269033 C55.3235497,398.269457 48.2615099,398.25547 41.1994702,398.275815 C36.8682384,398.288106 34.3896159,400.752742 34.3383311,405.096689 C34.3001854,408.345007 34.2989139,411.594172 34.3362119,414.84249 C34.386649,419.25298 36.9250331,421.717192 41.3817219,421.721854 C49.0757086,421.730331 56.7696954,421.724397 64.8476821,421.724397 L64.8476821,434.013245 L37.7218543,434.013245" fill="#000000"></path>
		<path d="M144.529801,434.013245 C144.494199,430.554702 144.56498,422.074914 144.56498,422.074914 C133.630728,420.256212 128.040689,413.115338 127.752477,404.057854 C127.575311,398.483921 127.717298,392.899391 127.725351,387.319523 C127.725775,386.981298 127.809272,386.643073 127.872848,386.166252 L139.968,386.166252 C139.968,388.652079 139.967576,391.029828 139.968424,393.407152 C139.969272,396.585536 139.903152,399.765616 139.989192,402.941881 C140.115921,407.602437 142.528,409.891179 147.180927,409.905589 C149.793907,409.914066 152.407311,409.925086 155.020715,409.903046 C159.247682,409.867444 161.75343,407.415099 161.790305,403.202967 C161.832689,398.330066 161.796662,393.456318 161.805563,388.58257 C161.807258,387.824318 161.868291,387.065642 161.907709,386.165404 L174.05796,386.165404 L174.05796,388.546543 C174.05796,393.208371 174.058384,397.869775 174.05796,402.531603 C174.057113,413.183152 167.994914,420.233325 157.245033,421.864689 L157.245033,434.013245 L144.529801,434.013245" fill="#000000"></path>
		<path d="M64.6789934,404.00657 L64.6789934,416.005934 L39.6859338,416.005934 L39.6859338,404.00657 L64.6789934,404.00657" fill="#000000"></path>
		<path d="M212.560106,386.028927 L198.766623,386.028927 C189.005987,386.028927 181.093298,393.94204 181.093298,403.702675 L181.093298,416.170808 C181.093298,425.931868 189.005987,433.844556 198.766623,433.844556 L212.560106,433.844556 C222.320742,433.844556 230.23343,425.931868 230.23343,416.170808 L230.23343,403.702675 C230.23343,393.94204 222.320742,386.028927 212.560106,386.028927 L212.560106,386.028927 L212.560106,386.028927 Z M217.63306,415.810543 C217.63306,419.181351 214.900556,421.913854 211.529748,421.913854 L199.354066,421.913854 C195.983258,421.913854 193.250755,419.181351 193.250755,415.810543 L193.250755,404.318093 C193.250755,400.947285 195.983258,398.214781 199.354066,398.214781 L211.529748,398.214781 C214.900556,398.214781 217.63306,400.947285 217.63306,404.318093 L217.63306,415.810543 L217.63306,415.810543 Z" fill="#000000"></path>
		<path d="M128,0 L256,38.1456954 L256,267.019868 L128,359.417219 L0,267.019868 L0,38.1456954 L128,0" fill="#2A3141"></path>
		<path d="M128,9.74834437 L247.099338,44.9271523 L247.099338,262.781457 L128.018225,348.397351 L9.32450331,262.781457 L9.32450331,44.9271523 L128,9.74834437" fill-opacity="0.910000026" fill="url(#radialGradient-1)"></path>
		<path d="M128.211921,9.46437086 L9.11258278,44.7690596 L9.11258278,44.9271523 L9.32450331,44.9271523 L9.11258278,44.9271523 L9.11258278,262.88996 L128.211921,348.798728 L128.211921,348.257907 L128.018225,348.397351 L9.32450331,262.781457 L9.32450331,44.9271523 L128,9.74834437 L128.211921,9.81107285 L128.211921,9.46437086" fill="#262C3A"></path>
		<path d="M22.8874172,72.4768212 L22.8874172,118.251656 L128,176.741722 L233.112583,118.251656 L233.112583,72.4768212 L128,123.761589 L22.8874172,72.4768212" fill="#ECEDEC"></path>
		<path d="M22.8874172,138.596026 L22.8874172,184.370861 L128,253.033113 L201.748344,204.715232 L201.748344,156.821192 L128,199.629139 L22.8874172,138.596026" fill="#ECEDEC"></path>
		<path d="M22.8874172,207.258278 L22.8874172,253.033113 L128,328.900662 L233.112583,253.033113 L233.112583,207.258278 L128,275.92053 L22.8874172,207.258278" fill="#ECEDEC"></path>
		<path d="M127.788079,10.0323179 L9.53642384,45.085245 L9.53642384,262.672954 L127.788079,347.970119 L127.788079,10.0323179" fill-opacity="0.0700000003" fill="#000000"></path>
	</g>
</svg>

<svg width="256" height="435" xmlns="http://www.w3.org/2000/svg" preserveAspectRatio="xMidYMid"><defs><radialGradient cx="50%" cy="44.213%" fx="50%" fy="44.213%" r="50%" id="a"><stop stop-color="#A5C8E6" offset="0%"/><stop stop-color="#353D4B" offset="100%"/></radialGradient></defs><path d="M74.172 434.013c.001-9.881-.006-19.762.005-29.644.011-10.364 7.767-18.283 18.133-18.32 4.78-.016 9.675-.253 14.32.644 8.32 1.608 13.731 8.949 13.737 17.465.008 9.952.003 19.903.004 29.855h-12.292c.018-9.956.062-19.912.039-29.868-.008-3.455-2.509-6.054-5.961-6.174-3.244-.112-6.5-.12-9.743 0-3.46.13-5.967 2.705-5.98 6.174-.041 9.956.013 19.912.03 29.868H74.172m-36.45 0c-3.74-1.107-7.325-2.467-10.081-5.438-3.31-3.566-5.157-7.701-5.174-12.597-.014-4.167-.049-8.334.01-12.5.13-9.186 7.71-17.148 16.88-17.397 8.115-.22 16.242-.05 24.362-.045.272 0 .543.087.94.155v12.078h-2.273c-7.062 0-14.124-.014-21.187.007-4.33.012-6.81 2.477-6.86 6.82-.039 3.249-.04 6.498-.003 9.746.05 4.411 2.589 6.875 7.046 6.88 7.694.008 15.388.002 23.466.002v12.29H37.722m106.808-.001c-.036-3.458.035-11.938.035-11.938-10.934-1.819-16.524-8.96-16.813-18.017-.177-5.574-.035-11.159-.027-16.738 0-.339.084-.677.148-1.154h12.095v7.241c.001 3.179-.065 6.359.021 9.535.127 4.66 2.539 6.95 7.192 6.964 2.613.008 5.226.02 7.84-.003 4.227-.036 6.732-2.488 6.77-6.7.042-4.873.006-9.747.015-14.62.001-.759.062-1.517.102-2.418h12.15v16.367c0 10.651-6.063 17.701-16.813 19.333v12.148H144.53"/><path d="M64.679 404.007v11.999H39.686v-12h24.993m147.881-17.977h-13.793c-9.761 0-17.674 7.913-17.674 17.674v12.468c0 9.76 7.913 17.674 17.674 17.674h13.793c9.76 0 17.673-7.913 17.673-17.674v-12.468c0-9.761-7.912-17.674-17.673-17.674zm5.073 29.782a6.103 6.103 0 01-6.103 6.103h-12.176a6.103 6.103 0 01-6.103-6.103v-11.493a6.103 6.103 0 016.103-6.103h12.176a6.103 6.103 0 016.103 6.103v11.493z"/><path d="M128 0l128 38.146V267.02l-128 92.397L0 267.02V38.146L128 0" fill="#2A3141"/><path d="M128 9.748l119.1 35.18V262.78l-119.082 85.616L9.325 262.781V44.927L128 9.748" fill-opacity=".91" fill="url(#a)"/><path d="M128.212 9.464L9.112 44.77v.158h.213-.212V262.89l119.099 85.909v-.541l-.194.14L9.325 262.78V44.927L128 9.748l.212.063v-.347" fill="#262C3A"/><path d="M22.887 72.477v45.775L128 176.742l105.113-58.49V72.477L128 123.762 22.887 72.477" fill="#ECEDEC"/><path d="M22.887 138.596v45.775L128 253.033l73.748-48.318v-47.894L128 199.63 22.887 138.596" fill="#ECEDEC"/><path d="M22.887 207.258v45.775L128 328.901l105.113-75.868v-45.775L128 275.921 22.887 207.258" fill="#ECEDEC"/><path d="M127.788 10.032L9.536 45.085v217.588l118.252 85.297V10.032" fill-opacity=".07"/></svg>
